Newaita-dark/actions/24/view-list-icons.svg

<?xml version="1.0" encoding="UTF-8"?>
<svg xmlns="http://www.w3.org/2000/svg" xmlns:xlink="http://www.w3.org/1999/xlink" width="24pt" height="24pt" viewBox="0 0 24 24" version="1.1">
<g id="surface1">
<path style=" stroke:none;fill-rule:nonzero;fill:rgb(100%,43.921569%,26.274511%);fill-opacity:1;" d="M 2.976562 1.179688 C 1.878906 1.179688 0.992188 2.066406 0.992188 3.164062 L 0.992188 9.117188 C 0.992188 10.21875 1.878906 11.101562 2.976562 11.101562 L 8.929688 11.101562 C 10.03125 11.101562 10.914062 10.21875 10.914062 9.117188 L 10.914062 3.164062 C 10.914062 2.066406 10.03125 1.179688 8.929688 1.179688 Z M 3.472656 2.667969 L 8.433594 2.667969 C 8.984375 2.667969 9.425781 3.109375 9.425781 3.660156 L 9.425781 8.621094 C 9.425781 9.171875 8.984375 9.613281 8.433594 9.613281 L 3.472656 9.613281 C 2.921875 9.613281 2.480469 9.171875 2.480469 8.621094 L 2.480469 3.660156 C 2.480469 3.109375 2.921875 2.667969 3.472656 2.667969 Z M 3.472656 2.667969 "/>
<path style=" stroke:none;fill-rule:nonzero;fill:rgb(100%,43.921569%,26.274511%);fill-opacity:1;" d="M 14.882812 13.085938 C 13.785156 13.085938 12.898438 13.972656 12.898438 15.070312 L 12.898438 21.027344 C 12.898438 22.125 13.785156 23.011719 14.882812 23.011719 L 20.839844 23.011719 C 21.9375 23.011719 22.824219 22.125 22.824219 21.027344 L 22.824219 15.070312 C 22.824219 13.972656 21.9375 13.085938 20.839844 13.085938 Z M 15.378906 14.574219 L 20.339844 14.574219 C 20.890625 14.574219 21.335938 15.019531 21.335938 15.566406 L 21.335938 20.53125 C 21.335938 21.078125 20.890625 21.523438 20.339844 21.523438 L 15.378906 21.523438 C 14.832031 21.523438 14.386719 21.078125 14.386719 20.53125 L 14.386719 15.566406 C 14.386719 15.019531 14.832031 14.574219 15.378906 14.574219 Z M 15.378906 14.574219 "/>
<path style=" stroke:none;fill-rule:nonzero;fill:rgb(74.117649%,74.117649%,74.117649%);fill-opacity:1;" d="M 14.882812 1.179688 C 13.785156 1.179688 12.898438 2.066406 12.898438 3.164062 L 12.898438 9.117188 C 12.898438 10.21875 13.785156 11.101562 14.882812 11.101562 L 20.839844 11.101562 C 21.9375 11.101562 22.824219 10.21875 22.824219 9.117188 L 22.824219 3.164062 C 22.824219 2.066406 21.9375 1.179688 20.839844 1.179688 Z M 15.378906 2.667969 L 20.339844 2.667969 C 20.890625 2.667969 21.335938 3.109375 21.335938 3.660156 L 21.335938 8.621094 C 21.335938 9.171875 20.890625 9.613281 20.339844 9.613281 L 15.378906 9.613281 C 14.832031 9.613281 14.386719 9.171875 14.386719 8.621094 L 14.386719 3.660156 C 14.386719 3.109375 14.832031 2.667969 15.378906 2.667969 Z M 15.378906 2.667969 "/>
<path style=" stroke:none;fill-rule:nonzero;fill:rgb(74.117649%,74.117649%,74.117649%);fill-opacity:1;" d="M 2.976562 13.085938 C 1.878906 13.085938 0.992188 13.972656 0.992188 15.070312 L 0.992188 21.027344 C 0.992188 22.125 1.878906 23.011719 2.976562 23.011719 L 8.929688 23.011719 C 10.03125 23.011719 10.914062 22.125 10.914062 21.027344 L 10.914062 15.070312 C 10.914062 13.972656 10.03125 13.085938 8.929688 13.085938 Z M 3.472656 14.574219 L 8.433594 14.574219 C 8.984375 14.574219 9.425781 15.019531 9.425781 15.566406 L 9.425781 20.53125 C 9.425781 21.078125 8.984375 21.523438 8.433594 21.523438 L 3.472656 21.523438 C 2.921875 21.523438 2.480469 21.078125 2.480469 20.53125 L 2.480469 15.566406 C 2.480469 15.019531 2.921875 14.574219 3.472656 14.574219 Z M 3.472656 14.574219 "/>
</g>
</svg>

<svg xmlns="http://www.w3.org/2000/svg" width="32" height="32" viewBox="0 0 24 24"><path d="M2.977 1.18A1.982 1.982 0 0 0 .992 3.164v5.953a1.98 1.98 0 0 0 1.985 1.985H8.93a1.977 1.977 0 0 0 1.984-1.985V3.164A1.98 1.98 0 0 0 8.93 1.18zm.496 1.488h4.96c.551 0 .993.441.993.992v4.961c0 .55-.442.992-.992.992H3.473a.989.989 0 0 1-.993-.992v-4.96c0-.552.442-.993.993-.993zm0 0M14.883 13.086a1.982 1.982 0 0 0-1.985 1.984v5.957c0 1.098.887 1.985 1.985 1.985h5.957a1.982 1.982 0 0 0 1.984-1.985V15.07a1.982 1.982 0 0 0-1.984-1.984zm.496 1.488h4.96c.552 0 .997.446.997.992v4.965a.994.994 0 0 1-.996.992h-4.961a.994.994 0 0 1-.992-.992v-4.965c0-.546.445-.992.992-.992zm0 0" fill="#ff7043"/><path d="M14.883 1.18a1.982 1.982 0 0 0-1.985 1.984v5.953a1.98 1.98 0 0 0 1.985 1.985h5.957a1.98 1.98 0 0 0 1.984-1.985V3.164A1.982 1.982 0 0 0 20.84 1.18zm.496 1.488h4.96c.552 0 .997.441.997.992v4.961c0 .55-.445.992-.996.992h-4.961a.991.991 0 0 1-.992-.992v-4.96c0-.552.445-.993.992-.993zm0 0M2.977 13.086A1.982 1.982 0 0 0 .992 15.07v5.957c0 1.098.887 1.985 1.985 1.985H8.93a1.98 1.98 0 0 0 1.984-1.985V15.07a1.98 1.98 0 0 0-1.984-1.984zm.496 1.488h4.96c.551 0 .993.446.993.992v4.965a.991.991 0 0 1-.992.992H3.473a.991.991 0 0 1-.993-.992v-4.965c0-.546.442-.992.993-.992zm0 0" fill="#bdbdbd"/></svg>
